assets/azurechaosstudio/original.svg

<svg height="18" viewBox="0 0 18 18" width="18" xmlns="http://www.w3.org/2000/svg" xmlns:xlink="http://www.w3.org/1999/xlink"><linearGradient id="a" gradientUnits="userSpaceOnUse" x1="9" x2="9" y2="13.5"><stop offset="0" stop-color="#e83231"/><stop offset="1" stop-color="#ce1817"/></linearGradient><linearGradient id="b" gradientUnits="userSpaceOnUse" x1="16.61" x2="4.38" y1="16.75" y2="4.3"><stop offset=".04" stop-color="#a80000"/><stop offset=".32" stop-color="#a30302"/><stop offset=".63" stop-color="#960c06"/><stop offset=".71" stop-color="#910f08"/><stop offset=".74" stop-color="#8b0e07"/><stop offset=".79" stop-color="#790a05"/><stop offset=".85" stop-color="#5b0502"/><stop offset=".89" stop-color="#400"/></linearGradient><linearGradient id="c" gradientUnits="userSpaceOnUse" x1="17.38" x2="11.61" y1="16.32" y2="7.64"><stop offset=".35" stop-color="#a80000"/><stop offset=".52" stop-color="#a20402"/><stop offset=".75" stop-color="#910f08"/><stop offset=".8" stop-color="#8b0e07"/><stop offset=".87" stop-color="#790a05"/><stop offset=".94" stop-color="#5b0502"/><stop offset=".99" stop-color="#400"/></linearGradient><path d="m10.18 9v-5.68l-10.18 10.18v-9.5a4.9 4.9 0 0 1 1.33-2.69 4.43 4.43 0 0 1 2.94-1.31h9.23l4.5 4.5-4.5 4.5z" fill="url(#a)"/><path d="m7.82 9v5.68l10.18-10.18v9.5a4.9 4.9 0 0 1 -1.33 2.71 4.5 4.5 0 0 1 -2.94 1.29h-9.23l-4.5-4.5 4.5-4.5z" fill="url(#b)"/><path d="m7.82 14.68 10.18-10.18v9.5a4.9 4.9 0 0 1 -1.33 2.71 4.5 4.5 0 0 1 -2.94 1.29z" fill="url(#c)"/></svg>

<svg xmlns="http://www.w3.org/2000/svg" width="18" height="18" viewBox="0 0 18 18"><linearGradient id="a" x1="9" x2="9" y2="13.5" gradientUnits="userSpaceOnUse"><stop offset="0" stop-color="#e83231"/><stop offset="1" stop-color="#ce1817"/></linearGradient><linearGradient id="b" x1="16.61" x2="4.38" y1="16.75" y2="4.3" gradientUnits="userSpaceOnUse"><stop offset=".04" stop-color="#a80000"/><stop offset=".32" stop-color="#a30302"/><stop offset=".63" stop-color="#960c06"/><stop offset=".71" stop-color="#910f08"/><stop offset=".74" stop-color="#8b0e07"/><stop offset=".79" stop-color="#790a05"/><stop offset=".85" stop-color="#5b0502"/><stop offset=".89" stop-color="#400"/></linearGradient><linearGradient id="c" x1="17.38" x2="11.61" y1="16.32" y2="7.64" gradientUnits="userSpaceOnUse"><stop offset=".35" stop-color="#a80000"/><stop offset=".52" stop-color="#a20402"/><stop offset=".75" stop-color="#910f08"/><stop offset=".8" stop-color="#8b0e07"/><stop offset=".87" stop-color="#790a05"/><stop offset=".94" stop-color="#5b0502"/><stop offset=".99" stop-color="#400"/></linearGradient><path fill="url(#a)" d="M10.18 9V3.32L0 13.5V4a4.9 4.9 0 0 1 1.33-2.69A4.43 4.43 0 0 1 4.27 0h9.23L18 4.5 13.5 9z"/><path fill="url(#b)" d="M7.82 9v5.68L18 4.5V14a4.9 4.9 0 0 1-1.33 2.71A4.5 4.5 0 0 1 13.73 18H4.5L0 13.5 4.5 9z"/><path fill="url(#c)" d="M7.82 14.68 18 4.5V14a4.9 4.9 0 0 1-1.33 2.71A4.5 4.5 0 0 1 13.73 18z"/></svg>
